fs/text_paragraph_direction_right_16_regular.svg

<svg viewBox="0 0 16 16" fill="none" xmlns="http://www.w3.org/2000/svg" height="1em" width="1em">
  <path d="M9 3C7.61929 3 6.5 4.11929 6.5 5.5C6.5 6.88071 7.61929 8 9 8H10V3H9ZM11 3V13.5C11 13.7761 10.7761 14 10.5 14C10.2239 14 10 13.7761 10 13.5V9H9C7.067 9 5.5 7.433 5.5 5.5C5.5 3.567 7.067 2 9 2H13.5C13.7761 2 14 2.22386 14 2.5C14 2.77614 13.7761 3 13.5 3H13V13.5C13 13.7761 12.7761 14 12.5 14C12.2239 14 12 13.7761 12 13.5V3H11ZM2.14645 6.14645C2.34171 5.95118 2.65829 5.95118 2.85355 6.14645L4.35355 7.64645C4.54882 7.84171 4.54882 8.15829 4.35355 8.35355L2.85355 9.85355C2.65829 10.0488 2.34171 10.0488 2.14645 9.85355C1.95118 9.65829 1.95118 9.34171 2.14645 9.14645L3.29289 8L2.14645 6.85355C1.95118 6.65829 1.95118 6.34171 2.14645 6.14645Z" fill="#212121"/>
</svg>

<svg viewBox="0 0 16 16" fill="none" xmlns="http://www.w3.org/2000/svg" height="1em" width="1em">
  <path d="M9 3a2.5 2.5 0 0 0 0 5h1V3H9Zm2 0v10.5a.5.5 0 0 1-1 0V9H9a3.5 3.5 0 1 1 0-7h4.5a.5.5 0 0 1 0 1H13v10.5a.5.5 0 0 1-1 0V3h-1ZM2.146 6.146a.5.5 0 0 1 .708 0l1.5 1.5a.5.5 0 0 1 0 .708l-1.5 1.5a.5.5 0 0 1-.708-.708L3.293 8 2.146 6.854a.5.5 0 0 1 0-.708Z" fill="#212121"/>
</svg>
